X: 10283
T: THE BOTTLE BANK
C: Composed by James Hill, Newcastle
C: Arranged by W. B. Laybourn
R: hornpipe
B: K\"ohler's Violin Repository, v.1, 1885 p.28 #3
F: http://www.archive.org/details/klersviolinrepos01edin
Z: 2011 John Chambers <jc:trillian.mit.edu>
M: C|
L: 1/8
K: Bb
(uf>e) |\
(d>c)d>B (c>e)A>c | (B>A)B>c (B>d)c>B | (A>B)G>A (F>G)E>G | (3FGF (3EDC B,2(f>e) |
(d>c)d>B (c>e)A>c | (B>A)B>c B2F>E | (D>F)B>d (E>G)c>e | (g>f)=e>f B2 :|
|: (uF>D) |\
(B,>D)F>B (d>B)A>B | (C>E)A>c (e>c)A>c | (B,>D)F>B | (d>B)A>B | (3cdc (3BAG F2(F>D) |
(B,>D)F>B (d>B)A>B | (C>E)A>c (e>c)A>c | (g>f)=e>f (g>f)e>f | [d2F2][B2D2] [B2D2] :|

%%sep 2 1 500

